X:2462
T:Happy Acres Two-Step
O:england
M:2/4
L:1/16
S:field tape
N:B part played only once
K:D
A2 d2f2|:a4a2ga|b2a2f2d2|F6A2|dcBA GFED|C3D E2F2|G4F2G2|(3BcB A4^G2|A2A2
d2f2|a4a2ga|b2a2f2d2|F6A2|dcBA GFED|C3D E2F2|G2A2B2c2|
d4 d3d|d4c3d:|K:A (3efg a4c2A2|E3F E2D2|C2E2A2c2|e4 B2 (3cBA|G3A B2c2|
d4c2d2|f2e4d2|c4 c3d|(efg a2 c2A2|E3F E2D2|C2E2A2c2|e4 B2 (3cBA|
G3A B2c2|d2e2f2g2|a4a3a a2A2d2f2:|


